apps/common/main/resources/img/toolbar/2.5x/btn-setmarkers-rtl.svg

<svg width="20" height="20" viewBox="0 0 20 20" fill="none" xmlns="http://www.w3.org/2000/svg">
<path fill-rule="evenodd" clip-rule="evenodd" d="M14.5 7C15.3284 7 16 6.32843 16 5.5C16 4.67157 15.3284 4 14.5 4C13.6716 4 13 4.67157 13 5.5C13 6.32843 13.6716 7 14.5 7ZM14.5 12C15.3284 12 16 11.3284 16 10.5C16 9.67157 15.3284 9 14.5 9C13.6716 9 13 9.67157 13 10.5C13 11.3284 13.6716 12 14.5 12ZM16 15.5C16 16.3284 15.3284 17 14.5 17C13.6716 17 13 16.3284 13 15.5C13 14.6716 13.6716 14 14.5 14C15.3284 14 16 14.6716 16 15.5ZM4 5H12V6H4V5ZM4 10H12V11H4V10ZM12 15H4V16H12V15Z" fill="black"/>
</svg>

<svg xmlns="http://www.w3.org/2000/svg" width="20" height="20" fill="none"><path fill="#000" d="M14.5 7a1.5 1.5 0 1 0 0-3 1.5 1.5 0 0 0 0 3Zm0 5a1.5 1.5 0 1 0 0-3 1.5 1.5 0 0 0 0 3Zm1.5 3.5a1.5 1.5 0 1 1-3 0 1.5 1.5 0 0 1 3 0ZM4 5h8v1H4V5Zm0 5h8v1H4v-1Zm8 5H4v1h8v-1Z"/></svg>
